cssgg/layout-pin.svg

<svg
  width="24"
  height="24"
  viewBox="0 0 24 24"
  fill="none"
  xmlns="http://www.w3.org/2000/svg"
>
  <path
    fill-rule="evenodd"
    clip-rule="evenodd"
    d="M16.9307 4.01587H14.7655C14.3582 2.84239 13.2428 2 11.9307 2C10.6185 2 9.50313 2.84239 9.09581 4.01587H6.93066C5.27381 4.01587 3.93066 5.35901 3.93066 7.01587V9.21205C2.80183 9.64283 2 10.7357 2 12.0159C2 13.296 2.80183 14.3889 3.93066 14.8197V17.0159C3.93066 18.6727 5.27381 20.0159 6.93066 20.0159H9.08467C9.48247 21.2064 10.6064 22.0645 11.9307 22.0645C13.255 22.0645 14.3789 21.2064 14.7767 20.0159H16.9307C18.5875 20.0159 19.9307 18.6727 19.9307 17.0159V14.8446C21.095 14.4322 21.929 13.3214 21.929 12.0159C21.929 10.7103 21.095 9.5995 19.9307 9.18718V7.01587C19.9307 5.35901 18.5875 4.01587 16.9307 4.01587ZM5.93066 14.8687V17.0159C5.93066 17.5682 6.37838 18.0159 6.93066 18.0159H9.11902C9.54426 16.8761 10.6427 16.0645 11.9307 16.0645C13.2187 16.0645 14.3171 16.8761 14.7423 18.0159H16.9307C17.4829 18.0159 17.9307 17.5682 17.9307 17.0159V14.8458C16.7646 14.4344 15.929 13.3227 15.929 12.0159C15.929 10.709 16.7646 9.59732 17.9307 9.18597V7.01587C17.9307 6.46358 17.4829 6.01587 16.9307 6.01587H14.7543C14.338 7.17276 13.2309 8 11.9307 8C10.6304 8 9.52331 7.17276 9.10703 6.01587H6.93066C6.37838 6.01587 5.93066 6.46358 5.93066 7.01587V9.16302C7.13193 9.55465 8 10.6839 8 12.0159C8 13.3479 7.13193 14.4771 5.93066 14.8687Z"
    fill="currentColor"
  />
</svg>

<svg viewBox="0 0 24 24" xmlns="http://www.w3.org/2000/svg"><path fill-rule="evenodd" d="M16.93 4.01h-2.17c-.41-1.18-1.53-2.02-2.84-2.02 -1.32 0-2.43.84-2.84 2.01H6.91c-1.66 0-3 1.34-3 3v2.19c-1.13.43-1.94 1.52-1.94 2.8 0 1.28.8 2.37 1.93 2.8v2.19c0 1.65 1.34 3 3 3h2.15c.39 1.19 1.52 2.04 2.84 2.04 1.32 0 2.44-.86 2.846-2.05h2.15c1.65 0 3-1.35 3-3v-2.18c1.16-.42 1.99-1.53 1.99-2.83 0-1.31-.84-2.42-2-2.83V6.95c0-1.66-1.35-3-3-3ZM5.92 14.86V17c0 .55.44 1 1 1H9.1c.42-1.14 1.52-1.96 2.81-1.96 1.28 0 2.38.81 2.81 1.95h2.18c.55 0 1-.45 1-1v-2.18c-1.17-.42-2.01-1.53-2.01-2.83 0-1.31.83-2.42 2-2.83V6.97c0-.56-.45-1-1-1h-2.18c-.42 1.15-1.53 1.98-2.83 1.98 -1.31 0-2.41-.83-2.83-1.99H6.87c-.56 0-1 .44-1 1V9.1c1.2.39 2.06 1.52 2.06 2.85s-.87 2.46-2.07 2.85Z"/></svg>
